<?xml version="1.0" encoding="UTF-8"?>
<map version="1.10" tiledversion="1.12.1" orientation="orthogonal" renderorder="right-down" width="50" height="50" tilewidth="32" tileheight="32" infinite="0" nextlayerid="11" nextobjectid="71">
 <tileset firstgid="1" source="tilesets/Outside_tiles.tsx"/>
 <objectgroup id="9" name="collision">
  <object id="52" x="864" y="224" width="96" height="128"/>
  <object id="53" x="992" y="320" width="128" height="32"/>
  <object id="54" x="1088" y="224" width="32" height="128"/>
  <object id="55" x="864" y="224" width="256" height="32"/>
  <object id="56" x="960" y="288" width="32" height="32"/>
  <object id="57" x="928" y="480" width="128" height="96"/>
  <object id="58" x="1152" y="480" width="128" height="96"/>
  <object id="59" x="1344" y="480" width="128" height="96"/>
  <object id="60" x="1376" y="704" width="96" height="32"/>
  <object id="61" x="1312" y="640" width="32" height="96"/>
  <object id="62" x="1344" y="640" width="128" height="32"/>
  <object id="63" x="1344" y="672" width="32" height="32"/>
  <object id="64" x="1216" y="608" width="32" height="128"/>
  <object id="65" x="1120" y="608" width="96" height="32"/>
  <object id="66" x="1120" y="640" width="64" height="96"/>
  <object id="67" x="1024" y="704" width="64" height="32"/>
  <object id="68" x="1056" y="608" width="32" height="96"/>
  <object id="69" x="928" y="608" width="128" height="32"/>
  <object id="70" x="928" y="640" width="32" height="96"/>
  <object id="71" x="960" y="704" width="32" height="32"/>
  <object id="72" x="992" y="672" width="32" height="32"/>
  <object id="73" x="960" y="896" width="320" height="224"/>
  <object id="74" x="608" y="864" width="128" height="96"/>
  <object id="75" x="608" y="512" width="128" height="224"/>
  <object id="76" x="352" y="704" width="256" height="32"/>
  <object id="77" x="576" y="512" width="32" height="192"/>
  <object id="78" x="64" y="512" width="512" height="32"/>
  <object id="79" x="64" y="544" width="32" height="192"/>
  <object id="80" x="96" y="704" width="224" height="32"/>
  <object id="81" x="320" y="672" width="32" height="32"/>
  <object id="82" x="96" y="960" width="320" height="224"/>
  <object id="83" x="992" y="704" width="32" height="32"/>
  <object id="84" x="992" y="704"/>
 </objectgroup>
 <objectgroup id="12" name="wild_grass">
  <object id="107" x="384" y="160" width="224" height="160"/>
 </objectgroup>
 <objectgroup id="13" name="spawnpoint">
  <object id="69" name="sp_test" x="816" y="782"/>
 </objectgroup>
 <objectgroup id="11" name="event_trigger">
  <object id="112" name="pokemon_medical" type="trigger" x="992" y="704" width="32" height="32">
   <properties>
    <property name="target_map" value="pokemon_medical_r1.tmx"/>
   </properties>
  </object>
  <object id="50" name="pokemon_store" type="trigger" x="1184" y="704" width="32" height="32">
   <properties>
    <property name="target_map" value="pokemon_store_r1.tmx"/>
   </properties>
  </object>
  <object id="52" name="user_house" type="trigger" x="1344" y="704" width="32" height="32">
   <properties>
    <property name="target_map" value="user_house_r1.tmx"/>
   </properties>
  </object>
  <object id="60" name="dr_house" type="trigger" x="960" y="320" width="32" height="32">
   <properties>
    <property name="target_map" value="dr_house.tmx"/>
   </properties>
  </object>
  <object id="62" name="mall_door" type="trigger" x="320" y="704" width="32" height="32">
   <properties>
    <property name="target_map" value="mall.tmx"/>
   </properties>
  </object>
 </objectgroup>
 <layer id="1" name="ground" width="50" height="50">
  <data encoding="csv">
3,6,4,6,4,6,5,3,3,5,3,4,3,4,3,5,2,6,5,6,2,2,5,4,6,2,2,6,4,6,2,6,2,2,3,3,3,4,6,4,2,6,4,5,6,3,2,2,2,6,
3,6,2,5,4,5,2,2,3,6,4,2,2,3,6,5,3,2,5,2,6,6,3,3,3,4,6,2,6,2,5,6,4,5,6,5,3,4,5,3,3,4,5,6,6,3,3,3,3,4,
6,5,3,5,2,6,6,6,3,2,4,5,4,2,4,6,6,3,3,6,5,6,4,2,3,4,6,2,6,3,3,6,4,3,2,4,6,4,6,6,2,5,5,5,3,3,6,2,5,2,
4,6,2,6,4,4,3,6,5,3,5,6,4,2,5,3,6,4,3,6,4,5,3,5,6,3,2,3,2,6,2,5,4,6,5,3,2,4,2,2,6,2,2,4,2,4,2,2,2,3,
4,4,4,6,6,2,3,3,4,2,2,3,3,3,2,5,5,5,5,6,6,6,6,393,394,394,395,4,3,2,2,3,3,6,6,4,4,4,6,6,2,5,2,6,4,3,6,2,3,3,
6,5,6,6,3,5,2,4,2,6,4,5,6,6,2,4,3,5,6,2,4,6,4,401,402,402,403,3,6,4,4,4,3,2,6,6,4,5,3,6,2,6,5,5,6,5,6,4,2,3,
6,6,5,5,2,3,5,6,5,4,5,3,4,3,2,3,2,2,3,4,4,4,5,401,402,402,403,6,3,3,4,6,3,2,2,2,5,2,2,6,2,2,4,2,2,2,2,3,4,2,
4,3,2,4,3,6,6,6,2,6,4,4,6,5,5,4,5,4,3,5,2,6,2,401,402,402,403,5,3,3,4,5,5,3,6,2,2,4,6,5,5,2,4,5,5,2,5,5,6,6,
4,3,3,4,2,6,3,4,2,3,2,5,2,6,2,2,3,4,5,2,6,2,3,401,402,402,403,3,5,2,5,5,5,4,6,3,5,5,3,2,3,5,6,4,3,2,2,5,3,4,
5,3,6,5,3,3,2,3,2,4,5,2,3,3,4,5,3,2,6,4,3,2,2,401,402,402,403,4,5,2,6,3,5,2,5,6,2,3,5,3,4,5,2,5,2,4,2,3,2,6,
6,5,3,4,5,3,4,3,3,4,6,2,2,5,4,2,5,2,3,2,4,3,3,401,402,402,403,6,2,5,2,4,6,3,6,2,3,4,4,5,6,5,4,2,5,6,6,4,4,2,
4,4,4,2,3,6,2,5,3,2,4,3,6,6,4,4,4,4,2,2,5,3,5,401,402,402,397,394,394,394,394,394,394,394,394,394,394,394,394,394,394,394,394,394,394,394,394,395,6,2,
2,6,2,6,6,2,2,4,5,2,4,4,3,2,4,4,5,6,5,5,4,3,5,401,402,402,402,402,402,402,402,402,402,402,402,402,402,402,402,402,402,402,402,402,402,402,402,403,5,4,
3,5,3,2,5,4,2,5,2,2,6,2,5,3,6,2,4,6,3,6,3,6,3,401,402,402,402,402,402,402,402,402,402,402,402,402,402,402,402,402,402,402,402,402,402,402,402,403,5,4,
5,2,4,3,6,2,2,5,4,6,6,2,3,5,2,2,4,3,3,6,6,6,6,401,402,402,405,410,410,410,410,410,410,410,410,410,410,410,410,410,410,410,410,410,410,410,410,411,6,6,
4,6,6,5,2,2,3,3,2,6,3,5,6,4,2,3,4,6,5,5,6,5,3,401,402,402,403,32,32,4,6,4,6,32,32,32,4,2,2,2,32,3,5,3,4,5,24,6,6,5,
2,4,4,4,4,5,5,4,6,5,2,2,5,3,2,2,6,4,4,6,5,5,3,401,402,402,403,32,32,3,5,2,4,32,32,32,5,2,3,6,32,2,5,5,4,3,3,24,4,6,
4,3,6,6,6,4,4,3,6,3,3,6,2,6,3,2,4,6,5,2,6,3,6,401,402,402,403,32,32,2,5,2,32,32,32,32,5,4,2,5,32,24,6,6,5,2,4,2,2,2,
6,4,2,4,2,4,3,4,5,5,4,6,2,4,2,4,5,5,4,6,6,2,2,401,402,402,403,32,32,32,32,32,32,32,32,32,32,32,32,32,32,4,5,24,6,3,3,4,4,5,
2,6,5,5,4,6,4,3,6,5,2,2,5,4,3,5,4,6,4,2,3,5,6,401,402,402,403,32,32,5,5,6,6,6,32,32,32,32,32,32,32,24,4,4,6,24,6,2,3,5,
5,5,6,5,2,3,2,3,6,3,3,6,3,4,3,2,6,2,5,5,6,5,4,401,402,402,403,32,32,3,2,5,3,6,32,2,3,6,4,32,32,5,2,3,5,2,4,3,5,3,
6,3,2,3,2,6,5,2,2,6,4,4,2,3,3,6,4,2,4,6,3,6,3,401,402,402,403,32,32,5,5,5,2,5,32,4,2,2,6,32,32,4,4,5,2,5,2,24,4,4,
6,4,6,2,2,3,4,4,6,3,2,4,5,2,2,3,3,3,4,2,2,4,2,401,402,402,403,32,32,2,4,5,6,3,32,2,2,3,6,32,32,3,5,5,6,3,2,2,4,6,
3,3,393,394,394,394,394,394,394,394,394,394,394,394,394,394,394,394,394,394,394,394,394,396,2,61,397,394,394,394,394,394,394,394,394,394,394,394,394,394,394,394,394,394,394,394,394,395,6,2,
3,3,401,402,402,402,402,402,402,402,402,402,402,402,402,402,402,402,402,402,402,402,402,402,102,219,402,402,402,402,402,402,402,402,402,402,402,402,402,402,402,402,402,402,402,402,402,403,2,2,
2,6,401,402,402,402,402,402,402,402,402,402,402,402,402,402,402,402,402,402,402,402,402,402,402,402,402,402,402,402,402,402,402,402,402,402,402,402,402,402,402,402,402,402,402,402,402,403,3,5,
6,6,409,410,410,410,410,410,410,410,410,410,410,410,410,410,410,410,410,410,410,410,410,404,402,402,405,410,410,410,410,410,410,410,410,410,410,410,410,410,410,410,410,410,410,410,410,411,5,5,
4,3,5,5,6,2,5,2,6,4,6,4,6,5,2,5,5,3,4,4,5,2,3,401,402,402,403,4,2,3,6,6,3,2,4,3,2,2,6,4,2,5,5,2,5,6,2,2,2,5,
6,2,6,3,3,6,3,6,2,4,2,3,6,5,6,2,3,4,3,2,5,5,6,401,402,402,403,3,2,6,2,2,6,4,2,3,5,2,2,4,6,6,3,4,3,3,4,4,4,2,
6,5,6,3,3,2,3,3,3,3,6,6,5,3,6,3,3,4,3,6,4,6,4,401,402,402,403,2,5,5,2,4,2,2,4,5,4,4,5,3,3,5,6,2,2,6,4,5,5,6,
5,2,6,6,5,5,2,3,5,5,3,3,2,3,5,5,2,4,5,5,4,6,6,401,402,402,403,5,6,6,3,6,3,5,3,3,2,6,2,4,5,3,5,6,6,3,6,6,3,3,
3,4,4,3,4,4,6,2,4,3,2,4,2,5,3,2,4,6,6,4,5,2,2,401,402,402,403,2,3,6,2,6,5,4,5,5,2,3,3,6,4,6,5,4,3,5,4,3,2,3,
4,4,6,6,2,5,2,6,4,6,2,4,6,4,4,3,6,6,6,3,2,5,3,401,402,402,403,4,3,3,5,2,3,2,5,6,5,3,6,3,4,4,2,3,3,4,3,5,3,4,
3,5,6,5,4,5,5,4,4,3,4,4,5,5,5,5,2,5,4,3,2,5,2,401,402,402,403,6,3,6,2,5,2,5,2,6,4,2,3,4,5,6,2,2,6,4,3,4,2,5,
2,4,5,5,5,2,3,2,2,2,5,3,6,6,5,5,2,6,4,4,3,3,6,401,402,402,403,6,2,3,5,6,4,5,6,3,4,2,3,5,2,5,4,2,3,4,4,4,5,5,
4,3,6,2,6,6,3,2,6,2,5,6,6,5,5,6,4,3,3,4,2,4,2,401,402,402,403,3,5,5,2,2,6,4,2,5,5,6,3,6,5,3,3,4,2,4,5,6,3,2,
6,3,2,4,2,4,4,3,5,2,2,3,3,4,2,5,2,3,6,6,4,2,2,401,402,402,403,6,3,6,6,6,3,6,6,2,5,3,3,2,6,4,5,4,2,4,3,3,4,4,
3,4,5,2,5,4,4,6,5,4,4,5,6,3,2,3,5,3,6,4,6,4,3,401,402,402,403,4,3,4,5,5,2,3,4,5,4,5,5,5,5,2,2,4,5,5,4,3,6,3,
3,6,4,3,2,3,6,3,3,5,4,6,3,2,2,6,4,6,6,5,2,4,3,401,402,402,403,4,2,3,6,6,3,2,6,5,6,2,5,4,5,2,5,4,5,4,2,6,3,4,
4,6,2,2,4,2,3,4,2,6,3,6,3,4,4,2,6,4,6,4,6,2,3,401,402,402,403,6,6,3,2,2,6,5,2,2,3,3,4,3,4,3,2,3,3,6,3,5,2,4,
2,3,2,6,3,5,5,3,6,6,4,6,6,4,3,5,5,2,3,4,2,6,2,401,402,402,403,5,6,5,2,5,6,3,6,3,2,4,3,4,3,5,2,4,2,2,5,5,6,6,
4,2,4,4,4,2,2,2,5,3,4,3,6,4,5,2,2,5,3,4,6,5,3,401,402,402,403,3,4,5,6,5,5,3,5,6,4,3,6,2,6,3,3,4,2,4,5,3,6,4,
4,4,3,4,3,6,4,6,5,3,4,5,4,5,5,5,5,6,6,6,3,4,5,409,410,410,411,5,3,4,2,3,6,5,6,2,5,4,6,4,4,6,5,4,2,4,5,6,5,4,
5,2,3,4,2,3,5,5,2,5,6,3,4,5,2,5,4,5,5,6,5,3,3,4,2,3,6,5,6,4,4,6,3,5,2,5,5,3,3,3,4,3,3,4,3,2,2,5,6,3,
5,3,3,5,2,2,5,3,4,5,6,5,5,5,3,2,3,6,6,6,2,4,2,5,3,3,6,3,6,6,4,2,5,3,2,6,6,3,2,2,2,2,6,5,4,2,4,5,4,5,
4,5,5,5,3,3,5,3,3,2,3,2,3,2,3,3,3,2,5,2,4,4,6,4,3,4,5,5,6,2,5,5,4,6,6,2,2,3,5,4,2,3,4,5,3,5,4,2,6,5,
2,3,3,3,2,6,6,5,6,2,2,5,4,5,4,6,6,6,2,5,6,6,2,3,5,5,3,4,5,2,4,4,6,5,3,3,3,5,3,2,2,3,3,3,2,4,2,5,4,3,
2,6,2,5,2,2,6,3,3,5,4,2,6,4,5,4,6,3,3,3,4,3,2,4,3,5,6,4,6,5,3,2,3,3,4,5,2,6,6,4,2,3,6,6,4,6,5,2,4,3,
6,6,6,6,5,2,5,4,4,2,5,5,2,5,4,2,3,2,4,6,2,4,6,3,6,5,3,4,6,2,2,5,4,5,5,4,2,6,6,3,4,4,3,6,4,4,5,6,2,6,
3,5,6,2,4,3,2,6,5,5,6,3,4,5,3,6,5,6,3,5,4,4,4,3,6,5,3,2,5,5,5,6,3,3,4,6,6,2,3,3,6,6,6,6,2,3,5,6,4,3
</data>
 </layer>
 <layer id="6" name="details" width="50" height="50">
  <data encoding="csv">
0,0,0,0,0,0,0,0,0,0,0,0,0,0,0,0,0,0,0,0,0,0,0,0,0,0,0,0,0,0,0,0,0,0,0,0,0,0,0,0,0,0,0,0,0,0,0,0,0,0,
0,0,0,0,0,0,0,0,0,0,0,0,0,0,0,0,0,0,0,0,0,0,0,0,0,0,0,0,0,0,0,0,0,0,0,0,0,0,0,0,0,0,0,0,0,0,0,0,0,0,
0,0,0,0,0,0,0,0,0,0,0,0,0,0,0,0,0,0,0,0,0,0,0,0,0,0,0,0,0,0,0,0,0,0,0,0,0,0,0,0,0,0,0,0,0,0,0,0,0,0,
0,0,0,0,0,0,0,0,0,0,0,0,0,0,0,0,0,0,0,0,0,0,0,0,0,0,0,0,0,0,0,0,0,0,0,0,0,0,0,0,0,0,0,0,0,0,0,0,0,0,
0,0,0,0,0,0,0,0,0,0,0,0,0,0,0,0,0,0,0,0,0,0,0,0,0,0,0,0,0,0,0,0,0,0,0,0,0,0,0,0,0,0,0,0,0,0,0,0,0,0,
0,0,0,0,0,0,0,0,0,0,0,0,7,7,7,7,7,7,7,0,0,0,0,0,0,0,0,0,0,0,0,0,0,0,0,0,0,0,0,0,0,0,0,0,0,0,0,0,0,0,
0,0,0,0,0,0,0,0,0,0,0,0,7,7,7,7,7,7,7,0,0,0,0,0,0,0,0,0,0,0,0,0,0,0,0,0,0,0,0,0,0,0,0,0,0,0,0,0,0,0,
0,0,0,0,0,0,0,0,0,0,0,0,7,7,7,7,7,7,7,0,0,0,0,0,0,0,0,0,0,0,0,0,0,0,0,0,0,0,0,0,0,0,0,0,0,0,0,0,0,0,
0,0,0,0,0,0,0,0,0,0,0,0,7,7,7,7,7,7,7,0,0,0,0,0,0,0,0,0,0,0,0,0,0,0,0,0,0,0,0,0,0,0,0,0,0,0,0,0,0,0,
0,0,0,0,0,0,0,0,0,0,0,0,7,7,7,7,7,7,7,0,0,0,0,0,0,0,0,0,0,0,0,0,0,0,0,0,0,0,0,0,0,0,0,0,0,0,0,0,0,0,
0,0,0,0,0,0,0,0,0,0,0,0,0,0,0,0,0,0,0,0,0,0,0,0,0,0,0,0,0,0,0,0,0,0,0,0,0,0,0,0,0,0,0,0,0,0,0,0,0,0,
0,0,0,0,0,0,0,0,0,0,0,0,0,0,0,0,0,0,0,0,0,0,0,0,0,0,0,0,0,0,0,0,0,0,0,0,0,0,0,0,0,0,0,0,0,0,0,0,0,0,
0,0,0,0,0,0,0,0,0,0,0,0,0,0,0,0,0,0,0,0,0,0,0,0,0,0,0,0,0,0,0,0,0,0,0,0,0,0,0,0,0,0,0,0,0,0,0,0,0,0,
0,0,0,0,0,0,0,0,0,0,0,0,0,0,0,0,0,0,0,0,0,0,0,0,0,0,0,0,0,0,0,0,0,0,0,0,0,0,0,0,0,0,0,0,0,0,0,0,0,0,
0,0,0,0,0,0,0,0,0,0,0,0,0,0,0,0,0,0,0,0,0,0,0,0,0,0,0,0,0,0,0,0,0,0,0,0,0,0,0,0,0,0,0,0,0,0,0,0,0,0,
0,0,0,0,0,0,0,0,0,0,0,0,0,0,0,0,0,0,0,0,0,0,0,0,0,0,0,0,0,0,0,0,0,0,0,0,0,0,0,0,0,0,0,0,0,0,0,0,0,0,
0,0,0,0,0,0,0,0,0,0,0,0,0,0,0,0,0,0,0,0,0,0,0,0,0,0,0,0,0,0,0,0,0,0,0,0,0,0,0,0,0,0,0,0,0,0,0,0,0,0,
0,0,0,0,0,0,0,0,0,0,0,0,0,0,0,0,0,0,0,0,0,0,0,0,0,0,0,0,0,0,0,0,0,0,0,0,0,0,0,0,0,0,0,0,0,0,0,0,0,0,
0,0,0,0,0,0,0,0,0,0,0,0,0,0,0,0,0,0,0,0,0,0,0,0,0,0,0,0,0,0,0,0,0,0,0,0,0,0,0,0,0,0,0,0,0,0,0,949,0,0,
0,0,0,0,0,0,0,0,0,0,0,0,0,0,0,0,0,0,0,0,0,0,0,0,0,0,0,0,0,0,0,0,0,0,0,0,0,0,0,0,0,0,0,0,0,0,0,0,0,0,
0,0,0,0,0,0,0,0,0,0,0,0,0,0,0,0,0,0,0,0,0,0,0,0,0,0,0,0,0,0,0,0,0,0,0,0,0,0,0,0,0,0,0,0,0,0,0,0,0,0,
0,0,0,0,0,0,0,0,0,0,0,0,0,0,0,0,0,0,0,0,0,0,0,0,0,0,0,0,0,0,0,0,0,0,0,0,0,0,0,0,0,0,0,0,0,0,0,0,0,0,
0,0,0,0,0,0,0,0,0,0,0,0,0,0,0,0,0,0,0,0,0,0,0,0,0,0,0,0,0,0,0,0,0,0,0,0,0,0,0,0,0,0,0,0,0,0,0,0,0,0,
0,0,0,0,0,0,0,0,0,0,0,0,0,0,0,0,0,0,0,0,0,0,0,0,0,0,0,0,0,0,0,0,0,0,0,0,0,0,0,0,0,0,0,0,0,0,0,0,0,0,
0,0,0,0,0,0,0,0,0,0,0,0,0,0,0,0,0,0,0,0,0,0,0,0,0,0,0,0,0,0,0,0,0,0,0,0,0,0,0,0,0,0,0,0,0,0,0,0,0,0,
0,0,0,0,0,0,0,0,0,0,0,0,0,0,0,0,0,0,0,0,0,0,0,0,0,0,0,0,0,0,0,0,0,0,0,0,0,0,0,0,0,0,0,0,0,0,0,0,0,0,
0,0,0,0,0,0,0,0,0,0,0,0,0,0,0,0,0,0,0,0,0,0,0,0,0,0,0,0,0,0,0,0,0,0,0,0,0,0,0,0,0,0,0,0,0,0,0,0,0,0,
0,0,0,0,0,0,0,0,0,0,0,0,0,0,0,0,0,0,0,0,0,0,0,0,0,0,0,0,0,0,0,0,0,0,0,0,0,0,0,0,0,0,0,0,0,0,0,0,0,0,
0,0,0,0,0,0,0,0,0,0,0,0,0,0,0,0,0,0,0,0,0,0,0,0,0,0,0,0,0,0,0,0,0,0,0,0,0,0,0,0,0,0,0,0,0,0,0,0,0,0,
0,0,0,0,0,0,0,0,0,0,0,0,0,0,0,0,0,0,0,0,0,0,0,0,0,0,0,0,0,0,0,0,0,0,0,0,0,0,0,0,0,0,0,0,0,0,0,0,0,0,
0,0,0,0,0,0,0,0,0,0,0,0,0,0,0,0,0,0,0,0,0,0,0,0,0,0,0,0,0,0,0,0,0,0,0,0,0,0,0,0,0,0,0,0,0,0,0,0,0,0,
0,0,0,0,0,0,0,0,0,0,0,0,0,0,0,0,0,0,0,0,0,0,0,0,0,0,0,0,0,0,0,0,0,0,0,0,0,0,0,0,0,0,0,0,0,0,0,0,0,0,
0,0,0,0,0,0,0,0,0,0,0,0,0,0,0,0,0,0,0,0,0,0,0,0,0,0,0,0,0,0,0,0,0,0,0,0,0,0,0,0,0,0,0,0,0,0,0,0,0,0,
0,0,0,0,0,0,0,0,0,0,0,0,0,0,0,0,0,0,0,0,0,0,0,0,0,0,0,0,0,0,0,0,0,0,0,0,0,0,0,0,0,0,0,0,0,0,0,0,0,0,
0,0,0,0,0,0,0,0,0,0,0,0,0,0,0,0,0,0,0,0,0,0,0,0,0,0,0,0,0,0,0,0,0,0,0,0,0,0,0,0,0,0,0,0,0,0,0,0,0,0,
0,0,0,0,0,0,0,0,0,0,0,0,0,0,0,0,0,0,0,0,0,0,0,0,0,0,0,0,0,0,0,0,0,0,0,0,0,0,0,0,0,0,0,0,0,0,0,0,0,0,
0,0,0,0,0,0,0,0,0,0,0,0,0,0,0,0,0,0,0,0,0,0,0,0,0,0,0,0,0,0,0,0,0,0,0,0,0,0,0,0,0,0,0,0,0,0,0,0,0,0,
0,0,0,0,0,0,0,0,0,0,0,0,0,0,0,0,0,0,0,0,0,0,0,0,0,0,0,0,0,0,0,0,0,0,0,0,0,0,0,0,0,0,0,0,0,0,0,0,0,0,
0,0,0,0,0,0,0,0,0,0,0,0,0,0,0,0,0,0,0,0,0,0,0,0,0,0,0,0,0,0,0,0,0,0,0,0,0,0,0,0,0,0,0,0,0,0,0,0,0,0,
0,0,0,0,0,0,0,0,0,0,0,0,0,0,0,0,0,0,0,0,0,0,0,0,0,0,0,0,0,0,0,0,0,0,0,0,0,0,0,0,0,0,0,0,0,0,0,0,0,0,
0,0,0,0,0,0,0,0,0,0,0,0,0,0,0,0,0,0,0,0,0,0,0,0,0,0,0,0,0,0,0,0,0,0,0,0,0,0,0,0,0,0,0,0,0,0,0,0,0,0,
0,0,0,0,0,0,0,0,0,0,0,0,0,0,0,0,0,0,0,0,0,0,0,0,0,0,0,0,0,0,0,0,0,0,0,0,0,0,0,0,0,0,0,0,0,0,0,0,0,0,
0,0,0,0,0,0,0,0,0,0,0,0,0,0,0,0,0,0,0,0,0,0,0,0,0,0,0,0,0,0,0,0,0,0,0,0,0,0,0,0,0,0,0,0,0,0,0,0,0,0,
0,0,0,0,0,0,0,0,0,0,0,0,0,0,0,0,0,0,0,0,0,0,0,0,0,0,0,0,0,0,0,0,0,0,0,0,0,0,0,0,0,0,0,0,0,0,0,0,0,0,
0,0,0,0,0,0,0,0,0,0,0,0,0,0,0,0,0,0,0,0,0,0,0,0,0,0,0,0,0,0,0,0,0,0,0,0,0,0,0,0,0,0,0,0,0,0,0,0,0,0,
0,0,0,0,0,0,0,0,0,0,0,0,0,0,0,0,0,0,0,0,0,0,0,0,0,0,0,0,0,0,0,0,0,0,0,0,0,0,0,0,0,0,0,0,0,0,0,0,0,0,
0,0,0,0,0,0,0,0,0,0,0,0,0,0,0,0,0,0,0,0,0,0,0,0,0,0,0,0,0,0,0,0,0,0,0,0,0,0,0,0,0,0,0,0,0,0,0,0,0,0,
0,0,0,0,0,0,0,0,0,0,0,0,0,0,0,0,0,0,0,0,0,0,0,0,0,0,0,0,0,0,0,0,0,0,0,0,0,0,0,0,0,0,0,0,0,0,0,0,0,0,
0,0,0,0,0,0,0,0,0,0,0,0,0,0,0,0,0,0,0,0,0,0,0,0,0,0,0,0,0,0,0,0,0,0,0,0,0,0,0,0,0,0,0,0,0,0,0,0,0,0,
0,0,0,0,0,0,0,0,0,0,0,0,0,0,0,0,0,0,0,0,0,0,0,0,0,0,0,0,0,0,0,0,0,0,0,0,0,0,0,0,0,0,0,0,0,0,0,0,0,0
</data>
 </layer>
 <layer id="7" name="obstacle" width="50" height="50">
  <data encoding="csv">
425,426,425,426,425,426,425,426,425,426,425,426,425,426,425,426,425,426,425,426,425,426,425,426,425,426,425,426,425,426,425,426,425,426,425,426,425,426,425,426,425,426,425,426,425,426,425,426,425,426,
417,418,417,418,417,418,417,418,417,418,417,418,417,418,417,418,417,418,417,418,417,418,417,445,446,447,448,418,417,418,417,418,417,418,417,418,417,418,417,418,417,418,417,418,417,418,417,418,417,418,
425,426,425,426,425,426,425,426,425,426,425,426,425,426,425,426,425,426,425,426,425,426,425,453,454,455,456,426,425,426,425,426,425,426,425,426,425,426,425,426,425,426,425,426,425,426,425,426,425,426,
417,418,433,434,433,434,433,434,433,434,433,434,433,434,433,434,433,434,433,434,433,434,433,461,462,463,464,434,433,434,433,434,433,434,433,434,433,434,433,434,433,434,433,434,433,434,433,434,417,418,
425,426,0,0,0,0,0,0,0,0,0,0,0,0,0,0,0,0,0,0,0,0,0,0,0,0,0,0,0,0,0,0,0,0,0,0,0,0,0,0,0,0,0,0,0,0,0,0,425,426,
417,418,0,0,0,0,0,0,0,0,0,0,0,0,0,0,0,0,0,0,0,0,0,0,0,0,0,0,0,0,0,0,0,0,0,0,0,0,0,0,0,0,0,0,0,0,0,0,417,418,
425,426,0,0,0,0,0,0,0,0,0,0,0,0,0,0,0,0,0,0,0,0,0,0,0,0,0,0,0,0,0,0,0,0,0,0,0,0,0,0,0,0,0,0,0,0,0,0,425,426,
417,418,0,0,0,0,0,0,0,0,0,0,0,0,0,0,0,0,0,0,0,0,0,0,0,0,0,3097,3098,3099,3100,3101,3102,3103,3104,0,0,0,0,0,0,0,0,0,0,0,0,0,417,418,
425,426,0,0,0,0,0,0,0,0,0,0,0,0,0,0,0,0,0,0,0,0,0,0,0,0,0,3105,3106,3107,3108,3109,3110,3111,3112,0,0,0,0,0,0,0,0,0,0,0,0,0,425,426,
417,418,0,0,0,0,0,0,0,0,0,0,0,0,0,0,0,0,0,0,0,0,0,0,0,0,0,3113,3114,3115,3116,3117,3118,3119,3120,0,0,0,0,0,0,0,0,0,0,0,0,0,417,418,
425,426,0,0,0,0,0,0,0,0,0,0,0,0,0,0,0,0,0,0,0,0,0,0,0,0,0,3121,3122,3123,3124,3125,3126,3127,3128,0,0,0,0,0,0,0,0,0,0,0,0,0,425,426,
417,418,0,0,0,0,0,0,0,0,0,0,0,0,0,0,0,0,0,0,0,0,0,0,0,0,0,0,0,0,0,0,0,0,0,0,0,0,0,0,0,0,0,0,0,0,0,0,417,418,
425,426,0,0,0,0,0,0,0,0,0,0,0,0,0,0,0,0,0,0,0,0,0,0,0,0,0,0,0,0,0,0,0,0,0,0,0,0,0,0,0,0,0,0,0,0,0,0,425,426,
417,418,0,0,0,0,0,0,0,0,0,0,0,0,0,0,0,0,0,0,0,0,0,0,0,0,0,0,0,0,0,0,0,0,0,0,0,0,0,0,0,0,0,0,0,0,0,0,417,418,
425,426,0,0,0,0,0,0,0,0,0,0,0,0,0,0,0,0,0,0,0,0,0,0,0,0,0,0,0,1829,0,0,0,1832,0,0,1829,0,0,0,1832,0,1829,0,0,0,1832,0,425,426,
417,418,0,0,0,0,0,0,0,0,0,0,0,0,0,0,0,0,0,0,0,0,0,0,0,0,0,0,0,1837,1838,1838,1839,1840,0,0,1837,1838,1838,1839,1840,0,1837,1838,1838,1839,1840,0,417,418,
425,426,3665,3666,3667,3667,3667,3667,3668,3669,3670,3671,3667,3667,3667,3667,3667,3667,3721,694,695,695,696,0,0,0,0,0,0,1861,1862,1863,1847,1848,0,0,1861,1862,1863,1847,1848,0,1861,1862,1863,1847,1848,0,425,426,
417,418,3673,3674,3675,3675,3675,3675,3676,3677,3678,3679,3675,3675,3675,3675,3675,3675,3729,702,703,703,704,0,0,0,0,0,0,1869,1870,1871,1855,1856,0,0,1869,1870,1871,1855,1856,0,1869,1870,1871,1855,1856,0,417,418,
425,426,3681,3682,3683,3683,3683,3683,3684,3685,3686,3687,3683,3683,3683,3683,3683,3683,3737,702,703,703,704,0,0,0,0,0,0,2609,2610,2611,2612,2613,0,0,0,0,0,0,0,985,986,987,985,986,987,0,425,426,
417,418,3681,3682,3683,3683,3683,3683,3684,3685,3686,3687,3683,3683,3683,3683,3683,3683,3737,702,703,703,704,0,0,0,0,0,0,2617,2618,2619,2620,2621,0,2649,2650,2651,2652,0,0,993,994,995,993,994,995,0,417,418,
425,426,3689,3690,3691,3691,3691,3691,3692,3693,3694,3695,3691,3691,3691,3691,3691,3691,3745,702,703,703,704,0,0,0,0,0,0,2625,2626,2627,2628,2629,0,2657,2658,2659,2660,0,0,1441,1442,1443,1444,1445,0,0,425,426,
417,418,3697,3698,3699,3699,3699,3699,3700,3701,3702,3703,3699,3699,3699,3699,3699,3699,3753,702,703,703,704,0,0,0,0,0,964,2633,2634,2635,2636,2637,0,2665,2666,2667,2668,0,963,1449,1450,1451,1452,1453,0,0,417,418,
425,426,3705,3706,3707,3707,3707,3707,3708,3709,3710,3711,3707,3707,3707,3707,3707,3707,3761,710,711,711,712,0,0,0,0,0,972,2641,2642,2643,2644,2645,0,2673,2674,2675,2676,0,971,1457,1458,1459,1460,1461,0,0,425,426,
417,418,0,0,0,0,0,0,0,0,0,0,0,0,0,0,0,0,0,0,0,0,0,0,0,0,0,0,0,0,0,0,0,0,0,0,0,0,0,0,0,0,0,0,0,0,0,0,417,418,
425,426,0,0,0,0,0,0,0,0,0,0,0,0,0,0,0,0,0,0,0,0,0,0,0,0,0,0,0,0,0,0,0,0,0,0,0,0,0,0,0,0,0,0,0,0,0,0,425,426,
417,418,0,0,0,0,0,0,0,0,0,0,0,0,0,0,0,0,0,0,0,0,0,0,0,0,0,0,0,0,0,0,0,0,0,0,0,0,0,0,0,0,0,0,0,0,0,0,417,418,
425,426,0,0,0,0,0,0,0,0,0,0,0,0,0,0,0,0,1829,0,0,0,1832,0,0,0,0,0,0,0,0,0,0,0,0,0,0,0,0,0,0,0,0,0,0,0,0,0,425,426,
417,418,0,0,0,0,0,0,0,0,0,0,0,0,0,0,0,0,1837,1838,1838,1839,1840,0,0,0,0,0,0,0,0,0,0,0,0,0,0,0,0,0,0,0,0,0,0,0,0,0,417,418,
425,426,0,0,0,0,0,0,0,0,0,0,0,0,0,0,0,0,1861,1862,1863,1847,1848,0,0,0,0,0,0,0,694,695,695,695,695,695,695,695,695,696,0,0,0,0,0,0,0,0,425,426,
417,418,0,0,0,0,0,0,0,0,0,0,0,0,0,0,0,0,1869,1870,1871,1855,1856,0,0,0,0,0,0,0,702,703,703,703,703,703,703,703,703,704,0,0,0,0,0,0,0,0,417,418,
425,426,0,694,695,695,695,695,695,695,695,695,696,0,0,0,0,0,0,0,0,0,0,0,0,0,0,0,0,0,702,703,703,703,703,703,703,703,703,704,0,0,0,0,0,0,0,0,425,426,
417,418,0,702,703,703,703,703,703,703,703,703,704,0,0,0,0,0,0,0,0,0,0,0,0,0,0,0,0,0,702,703,703,703,703,703,703,703,703,704,0,0,0,0,0,0,0,0,417,418,
425,426,0,702,703,703,703,703,703,703,703,703,704,0,0,0,0,0,0,0,0,0,0,0,0,0,0,0,0,0,702,703,703,703,703,703,703,703,703,704,0,0,0,0,0,0,0,0,425,426,
417,418,0,702,703,703,703,703,703,703,703,703,704,0,0,0,0,0,0,0,0,0,0,0,0,0,0,0,0,0,702,703,703,703,703,703,703,703,703,704,0,0,0,0,0,0,0,0,417,418,
425,426,0,702,703,703,703,703,703,703,703,703,704,0,0,0,0,0,0,0,0,0,0,0,0,0,0,0,0,0,710,711,711,711,711,711,711,711,711,712,0,0,0,0,0,0,0,0,425,426,
417,418,0,702,703,703,703,703,703,703,703,703,704,0,0,0,0,0,0,0,0,0,0,0,0,0,0,0,0,0,0,0,0,0,0,0,0,0,0,0,0,0,0,0,0,0,0,0,417,418,
425,426,0,710,711,711,711,711,711,711,711,711,712,0,0,0,0,0,0,0,0,0,0,0,0,0,0,0,0,0,0,0,0,0,0,0,0,0,0,0,0,0,0,0,0,0,0,0,425,426,
417,418,0,0,0,0,0,0,0,0,0,0,0,0,0,0,0,0,0,0,0,0,0,0,0,0,0,0,0,0,0,0,0,0,0,0,0,0,0,0,0,0,0,0,0,0,0,0,417,418,
425,426,0,0,0,0,0,0,0,0,0,0,0,0,0,0,0,0,0,0,0,0,0,0,0,0,0,0,0,0,0,0,0,0,0,0,0,0,0,0,0,0,0,0,0,0,0,0,425,426,
417,418,0,0,0,0,0,0,0,0,0,0,0,0,0,0,0,0,0,0,0,0,0,0,0,0,0,0,0,0,0,0,0,0,0,0,0,0,0,0,0,0,0,0,0,0,0,0,417,418,
425,426,0,0,0,0,0,0,0,0,0,0,0,0,0,0,0,0,0,0,0,0,0,0,0,0,0,0,0,0,0,0,0,0,0,0,0,0,0,0,0,0,0,0,0,0,0,0,425,426,
417,418,0,0,0,0,0,0,0,0,0,0,0,0,0,0,0,0,0,0,0,0,0,0,0,0,0,0,0,0,0,0,0,0,0,0,0,0,0,0,0,0,0,0,0,0,0,0,417,418,
425,426,0,0,0,0,0,0,0,0,0,0,0,0,0,0,0,0,0,0,0,0,0,0,0,0,0,0,0,0,0,0,0,0,0,0,0,0,0,0,0,0,0,0,0,0,0,0,425,426,
417,418,5,3,4,3,4,5,4,2,2,4,3,5,3,5,3,6,5,6,6,5,2,2,2,5,2,2,3,5,2,6,2,5,6,4,6,3,6,3,5,3,5,6,6,6,3,2,417,418,
425,426,425,426,425,426,425,426,425,426,425,426,425,426,425,426,425,426,425,426,425,426,425,426,425,426,425,426,425,426,425,426,425,426,425,426,425,426,425,426,425,426,425,426,425,426,425,426,425,426,
417,418,417,418,417,418,417,418,417,418,417,418,417,418,417,418,417,418,417,418,417,418,417,418,417,418,417,418,417,418,417,418,417,418,417,418,417,418,417,418,417,418,417,418,417,418,417,418,417,418,
425,426,425,426,425,426,425,426,425,426,425,426,425,426,425,426,425,426,425,426,425,426,425,426,425,426,425,426,425,426,425,426,425,426,425,426,425,426,425,426,425,426,425,426,425,426,425,426,425,426,
417,418,417,418,417,418,417,418,417,418,417,418,417,418,417,418,417,418,417,418,417,418,417,418,417,418,417,418,417,418,417,418,417,418,417,418,417,418,417,418,417,418,417,418,417,418,417,418,417,418,
425,426,425,426,425,426,425,426,425,426,425,426,425,426,425,426,425,426,425,426,425,426,425,426,425,426,425,426,425,426,425,426,425,426,425,426,425,426,425,426,425,426,425,426,425,426,425,426,425,426,
433,434,433,434,433,434,433,434,433,434,433,434,433,434,433,434,433,434,433,434,433,434,433,434,433,434,433,434,433,434,433,434,433,434,433,434,433,434,433,434,433,434,433,434,433,434,433,434,433,434
</data>
 </layer>
 <layer id="8" name="foreground" width="50" height="50">
  <data encoding="csv">
0,0,0,0,0,0,0,0,0,0,0,0,0,0,0,0,0,0,0,0,0,0,0,0,0,0,0,0,0,0,0,0,0,0,0,0,0,0,0,0,0,0,0,0,0,0,0,0,0,0,
0,0,0,0,0,0,0,0,0,0,0,0,0,0,0,0,0,0,0,0,0,0,0,0,0,0,0,0,0,0,0,0,0,0,0,0,0,0,0,0,0,0,0,0,0,0,0,0,0,0,
0,0,0,0,0,0,0,0,0,0,0,0,0,0,0,0,0,0,0,0,0,0,0,0,0,0,0,0,0,0,0,0,0,0,0,0,0,0,0,0,0,0,0,0,0,0,0,0,0,0,
0,0,0,0,0,0,0,0,0,0,0,0,0,0,0,0,0,0,0,0,0,0,0,0,0,0,0,0,0,0,0,0,0,0,0,0,0,0,0,0,0,0,0,0,0,0,0,0,0,0,
0,0,0,0,0,0,0,0,0,0,0,0,0,0,0,0,0,0,0,0,0,0,0,0,0,0,0,0,0,0,0,0,0,0,0,0,0,0,0,0,0,0,0,0,0,0,0,0,0,0,
0,0,0,0,0,0,0,0,0,0,0,0,0,0,0,0,0,0,0,0,0,0,0,0,0,0,0,0,0,0,0,0,0,0,0,0,0,0,0,0,0,0,0,0,0,0,0,0,0,0,
0,0,0,0,0,0,0,0,0,0,0,0,0,0,0,0,0,0,0,0,0,0,0,0,0,0,0,3089,3090,3091,3092,3093,3094,3095,3096,0,0,0,0,0,0,0,0,0,0,0,0,0,0,0,
0,0,0,0,0,0,0,0,0,0,0,0,0,0,0,0,0,0,0,0,0,0,0,0,0,0,0,0,0,0,0,0,0,0,0,0,0,0,0,0,0,0,0,0,0,0,0,0,0,0,
0,0,0,0,0,0,0,0,0,0,0,0,0,0,0,0,0,0,0,0,0,0,0,0,0,0,0,0,0,0,0,0,0,0,0,0,0,0,0,0,0,0,0,0,0,0,0,0,0,0,
0,0,0,0,0,0,0,0,0,0,0,0,0,0,0,0,0,0,0,0,0,0,0,0,0,0,0,0,0,0,0,0,0,0,0,0,0,0,0,0,0,0,0,0,0,0,0,0,0,0,
0,0,0,0,0,0,0,0,0,0,0,0,0,0,0,0,0,0,0,0,0,0,0,0,0,0,0,0,0,0,0,0,0,0,0,0,0,0,0,0,0,0,0,0,0,0,0,0,0,0,
0,0,0,0,0,0,0,0,0,0,0,0,0,0,0,0,0,0,0,0,0,0,0,0,0,0,0,0,0,0,0,0,0,0,0,0,0,0,0,0,0,0,0,0,0,0,0,0,0,0,
0,0,0,0,0,0,0,0,0,0,0,0,0,0,0,0,0,0,0,0,0,0,0,0,0,0,0,0,0,0,0,0,0,0,0,0,0,0,0,0,0,0,0,0,0,0,0,0,0,0,
0,0,0,0,0,0,0,0,0,0,0,0,0,0,0,0,0,0,0,0,0,0,0,0,0,0,0,0,0,0,0,0,0,0,0,0,0,0,0,0,0,0,0,0,0,0,0,0,0,0,
0,0,0,0,0,0,0,0,0,0,0,0,0,0,0,0,0,0,0,0,0,0,0,0,0,0,0,0,0,0,1822,1823,1824,0,0,0,0,1822,1823,1824,0,0,0,1822,1823,1824,0,0,0,0,
0,0,3657,3658,3659,3659,3659,3659,3660,3661,3662,3663,3659,3659,3659,3659,3659,3659,3713,0,0,0,0,0,0,0,0,0,0,0,0,0,0,0,0,0,0,0,0,0,0,0,0,0,0,0,0,0,0,0,
0,0,0,0,0,0,0,0,0,0,0,0,0,0,0,0,0,0,0,0,0,0,0,0,0,0,0,0,0,0,0,0,0,0,0,0,0,0,0,0,0,0,0,0,0,0,0,0,0,0,
0,0,0,0,0,0,0,0,0,0,0,0,0,0,0,0,0,0,0,0,0,0,0,0,0,0,0,0,0,0,0,0,0,0,0,0,0,0,0,0,0,0,0,0,0,0,0,0,0,0,
0,0,0,0,0,0,0,0,0,0,0,0,0,0,0,0,0,0,0,0,0,0,0,0,0,0,0,0,0,0,0,0,0,0,0,0,0,0,0,0,0,0,0,0,0,0,0,0,0,0,
0,0,0,0,0,0,0,0,0,0,0,0,0,0,0,0,0,0,0,0,0,0,0,0,0,0,0,0,0,0,0,0,0,0,0,0,0,0,0,0,0,0,0,0,0,0,0,0,0,0,
0,0,0,0,0,0,0,0,0,0,0,0,0,0,0,0,0,0,0,0,0,0,0,0,0,0,0,0,0,0,0,0,0,0,0,0,0,0,0,0,0,0,0,0,0,0,0,0,0,0,
0,0,0,0,0,0,0,0,0,0,0,0,0,0,0,0,0,0,0,0,0,0,0,0,0,0,0,0,0,0,0,0,0,0,0,0,0,0,0,0,0,0,0,0,0,0,0,0,0,0,
0,0,0,0,0,0,0,0,0,0,0,0,0,0,0,0,0,0,0,0,0,0,0,0,0,0,0,0,0,0,0,0,0,0,0,0,0,0,0,0,0,0,0,0,0,0,0,0,0,0,
0,0,0,0,0,0,0,0,0,0,0,0,0,0,0,0,0,0,0,0,0,0,0,0,0,0,0,0,0,0,0,0,0,0,0,0,0,0,0,0,0,0,0,0,0,0,0,0,0,0,
0,0,0,0,0,0,0,0,0,0,0,0,0,0,0,0,0,0,0,0,0,0,0,0,0,0,0,0,0,0,0,0,0,0,0,0,0,0,0,0,0,0,0,0,0,0,0,0,0,0,
0,0,0,0,0,0,0,0,0,0,0,0,0,0,0,0,0,0,0,0,0,0,0,0,0,0,0,0,0,0,0,0,0,0,0,0,0,0,0,0,0,0,0,0,0,0,0,0,0,0,
0,0,0,0,0,0,0,0,0,0,0,0,0,0,0,0,0,0,0,1822,1823,1824,0,0,0,0,0,0,0,0,0,0,0,0,0,0,0,0,0,0,0,0,0,0,0,0,0,0,0,0,
0,0,0,0,0,0,0,0,0,0,0,0,0,0,0,0,0,0,0,0,0,0,0,0,0,0,0,0,0,0,0,0,0,0,0,0,0,0,0,0,0,0,0,0,0,0,0,0,0,0,
0,0,0,0,0,0,0,0,0,0,0,0,0,0,0,0,0,0,0,0,0,0,0,0,0,0,0,0,0,0,0,0,0,0,0,0,0,0,0,0,0,0,0,0,0,0,0,0,0,0,
0,0,0,0,0,0,0,0,0,0,0,0,0,0,0,0,0,0,0,0,0,0,0,0,0,0,0,0,0,0,0,0,0,0,0,0,0,0,0,0,0,0,0,0,0,0,0,0,0,0,
0,0,0,0,0,0,0,0,0,0,0,0,0,0,0,0,0,0,0,0,0,0,0,0,0,0,0,0,0,0,0,0,0,0,0,0,0,0,0,0,0,0,0,0,0,0,0,0,0,0,
0,0,0,0,0,0,0,0,0,0,0,0,0,0,0,0,0,0,0,0,0,0,0,0,0,0,0,0,0,0,0,0,0,0,0,0,0,0,0,0,0,0,0,0,0,0,0,0,0,0,
0,0,0,0,0,0,0,0,0,0,0,0,0,0,0,0,0,0,0,0,0,0,0,0,0,0,0,0,0,0,0,0,0,0,0,0,0,0,0,0,0,0,0,0,0,0,0,0,0,0,
0,0,0,0,0,0,0,0,0,0,0,0,0,0,0,0,0,0,0,0,0,0,0,0,0,0,0,0,0,0,0,0,0,0,0,0,0,0,0,0,0,0,0,0,0,0,0,0,0,0,
0,0,0,0,0,0,0,0,0,0,0,0,0,0,0,0,0,0,0,0,0,0,0,0,0,0,0,0,0,0,0,0,0,0,0,0,0,0,0,0,0,0,0,0,0,0,0,0,0,0,
0,0,0,0,0,0,0,0,0,0,0,0,0,0,0,0,0,0,0,0,0,0,0,0,0,0,0,0,0,0,0,0,0,0,0,0,0,0,0,0,0,0,0,0,0,0,0,0,0,0,
0,0,0,0,0,0,0,0,0,0,0,0,0,0,0,0,0,0,0,0,0,0,0,0,0,0,0,0,0,0,0,0,0,0,0,0,0,0,0,0,0,0,0,0,0,0,0,0,0,0,
0,0,0,0,0,0,0,0,0,0,0,0,0,0,0,0,0,0,0,0,0,0,0,0,0,0,0,0,0,0,0,0,0,0,0,0,0,0,0,0,0,0,0,0,0,0,0,0,0,0,
0,0,0,0,0,0,0,0,0,0,0,0,0,0,0,0,0,0,0,0,0,0,0,0,0,0,0,0,0,0,0,0,0,0,0,0,0,0,0,0,0,0,0,0,0,0,0,0,0,0,
0,0,0,0,0,0,0,0,0,0,0,0,0,0,0,0,0,0,0,0,0,0,0,0,0,0,0,0,0,0,0,0,0,0,0,0,0,0,0,0,0,0,0,0,0,0,0,0,0,0,
0,0,0,0,0,0,0,0,0,0,0,0,0,0,0,0,0,0,0,0,0,0,0,0,0,0,0,0,0,0,0,0,0,0,0,0,0,0,0,0,0,0,0,0,0,0,0,0,0,0,
0,0,0,0,0,0,0,0,0,0,0,0,0,0,0,0,0,0,0,0,0,0,0,0,0,0,0,0,0,0,0,0,0,0,0,0,0,0,0,0,0,0,0,0,0,0,0,0,0,0,
0,0,0,0,0,0,0,0,0,0,0,0,0,0,0,0,0,0,0,0,0,0,0,0,0,0,0,0,0,0,0,0,0,0,0,0,0,0,0,0,0,0,0,0,0,0,0,0,0,0,
0,0,421,422,421,422,421,422,421,422,421,422,421,422,421,422,421,422,421,422,421,422,421,422,421,422,421,422,421,422,421,422,421,422,421,422,421,422,421,422,421,422,421,422,421,422,421,422,0,0,
0,0,0,0,0,0,0,0,0,0,0,0,0,0,0,0,0,0,0,0,0,0,0,0,0,0,0,0,0,0,0,0,0,0,0,0,0,0,0,0,0,0,0,0,0,0,0,0,0,0,
0,0,0,0,0,0,0,0,0,0,0,0,0,0,0,0,0,0,0,0,0,0,0,0,0,0,0,0,0,0,0,0,0,0,0,0,0,0,0,0,0,0,0,0,0,0,0,0,0,0,
0,0,0,0,0,0,0,0,0,0,0,0,0,0,0,0,0,0,0,0,0,0,0,0,0,0,0,0,0,0,0,0,0,0,0,0,0,0,0,0,0,0,0,0,0,0,0,0,0,0,
0,0,0,0,0,0,0,0,0,0,0,0,0,0,0,0,0,0,0,0,0,0,0,0,0,0,0,0,0,0,0,0,0,0,0,0,0,0,0,0,0,0,0,0,0,0,0,0,0,0,
0,0,0,0,0,0,0,0,0,0,0,0,0,0,0,0,0,0,0,0,0,0,0,0,0,0,0,0,0,0,0,0,0,0,0,0,0,0,0,0,0,0,0,0,0,0,0,0,0,0,
0,0,0,0,0,0,0,0,0,0,0,0,0,0,0,0,0,0,0,0,0,0,0,0,0,0,0,0,0,0,0,0,0,0,0,0,0,0,0,0,0,0,0,0,0,0,0,0,0,0
</data>
 </layer>
</map>
